svg/fluentui-system-icons/ic_fluent_database_multiple_32_filled.svg

<svg width="32" height="32" viewBox="0 0 32 32" fill="none" xmlns="http://www.w3.org/2000/svg">
<path d="M5 7C5 4.23858 9.92487 2 16 2C22.0751 2 27 4.23858 27 7C27 9.76142 22.0751 12 16 12C9.92487 12 5 9.76142 5 7ZM5 13.2533V10.8764C5.72619 11.4913 6.57104 11.9821 7.39422 12.3563C7.9555 12.6114 8.56059 12.8397 9.20187 13.0392C8.80794 13.0133 8.40659 13 8 13C6.96114 13 5.94766 13.0868 5 13.2533ZM24.6058 12.3563C22.3003 13.4042 19.2559 14 16 14C15.0727 14 14.1625 13.9517 13.2817 13.8583C13.6961 14.0124 14.0899 14.1883 14.4551 14.3868C15.5224 14.967 16.8778 16.0562 16.9922 17.766L17 17.7601V28C17 28.7843 16.7289 29.4554 16.3525 29.9975C22.2645 29.9129 27 27.7078 27 25V10.8764C26.2738 11.4913 25.429 11.9821 24.6058 12.3563ZM1 28C1 28.5464 1.34087 29.0587 1.93646 29.5C3.14679 30.3967 5.409 31 8 31C11.866 31 15 29.6569 15 28V20.6727C14.5636 21.0028 14.0635 21.2759 13.5406 21.5L13.5 21.5173C12.8999 21.7711 12.226 21.9799 11.5 22.1388C10.4244 22.3742 9.2343 22.5 8 22.5C5.91373 22.5 3.95378 22.1405 2.45937 21.5C1.93649 21.2759 1.43639 21.0028 1 20.6727V28ZM11.5 20.5987C12.272 20.4073 12.9507 20.1545 13.5 19.856C14.4394 19.3453 15 18.7007 15 18C15 17.2993 14.4394 16.6547 13.5 16.144C12.9507 15.8455 12.272 15.5927 11.5 15.4013C10.4704 15.1461 9.27501 15 8 15C4.13401 15 1 16.3431 1 18C1 19.6569 4.13401 21 8 21C9.27501 21 10.4704 20.8539 11.5 20.5987Z" fill="#212121"/>
</svg>

<svg xmlns="http://www.w3.org/2000/svg" width="32" height="32"><path d="M5 7c0-2.761 4.925-5 11-5s11 2.239 11 5-4.925 5-11 5S5 9.761 5 7Zm0 6.253v-2.377c.726.615 1.571 1.106 2.394 1.48a15.51 15.51 0 0 0 1.808.683A18.26 18.26 0 0 0 8 13c-1.039 0-2.052.087-3 .253Zm19.606-.897C22.3 13.404 19.256 14 16 14a25.65 25.65 0 0 1-2.718-.142c.414.154.808.33 1.173.529 1.067.58 2.423 1.67 2.537 3.379L17 17.76V28c0 .784-.271 1.455-.648 1.997C22.265 29.913 27 27.707 27 25V10.876c-.726.615-1.571 1.106-2.394 1.48ZM1 28c0 .546.34 1.059.936 1.5C3.146 30.397 5.41 31 8 31c3.866 0 7-1.343 7-3v-7.327a6.98 6.98 0 0 1-1.46.827l-.04.017c-.6.254-1.274.463-2 .622A16.511 16.511 0 0 1 8 22.5c-2.086 0-4.046-.36-5.54-1A6.98 6.98 0 0 1 1 20.673V28Zm10.5-7.401c.772-.192 1.45-.445 2-.743.94-.51 1.5-1.155 1.5-1.856 0-.7-.56-1.345-1.5-1.856-.55-.298-1.228-.551-2-.743A14.732 14.732 0 0 0 8 15c-3.866 0-7 1.343-7 3s3.134 3 7 3c1.275 0 2.47-.146 3.5-.401Z"/></svg>
